X: 9557
T: Dave Murphy's
R: reel
M: 4/4
K: Dmajor
dcBA F2 FE|DF (3FFF DF (3FFF|ABcd F2 FE|DEFD B,E E2:|
dcBc deed|(3Bcd ed cAGB|ABcd e2 ef|g2 fe d2 ed|
ABcd e2 de|(3Bcd ed cAGB|ABcd e2 ef|g2 fe d4|

